!!!OTL: KEIN SCHOENRER TOD AUF DIESER WELT
!!!ARE: Europa, Mitteleuropa, Deutschland
!!!SCT: B0046
!!!YEM: Copyright 1995, estate of Helmut Schaffrath.
**kern
*ICvox
*Ivox
*M3/4
*k[f#]
*G:
{4d
=1
8g
8dd
8dd
8cc
8cc
8b
=2
2a}
{4d
=3
8a
8ee
8ee
8dd
8dd
8cc
=4
2b}
{4b
=5
4.a
8f#
8g
8b
=6
8.a
16b
4a}
{4dd
=7
4.a
8f#
8g
8b
=8
8.a
16b
4a}
{4d
=9
8g
8dd
8dd
8cc
8cc
8b
=10
2a}
{4b
=11
8.cc
16a
4g
4a
=12
2b}
{4d
=13
8g
8dd
8dd
8cc
8cc
8b
=14
2a}
{4b
=15
8.cc
16a
4g
4a
=16
2g}
==
!!!AGN: Kriegs -, Sieges -, Soldaten - Lied
!!!ONB: ESAC (Essen Associative Code) Database: BOEHME
!!!AMT: simple triple
!!!AIN: vox
!!!EED: Helmut Schaffrath
!!!EEV: 1.0
*-
